symbols/web/emoji_objects/materialsymbolssharp/emoji_objects_grad200fill1_20px.svg

<svg xmlns="http://www.w3.org/2000/svg" height="20" width="20"><path d="M10 19.292q-.604 0-1.125-.25t-.917-.709H6.042v-5.541q-1.188-.938-1.948-2.313-.761-1.375-.761-3.104 0-2.771 1.948-4.719Q7.229.708 10 .708q2.771 0 4.719 1.948 1.948 1.948 1.948 4.719 0 1.771-.761 3.125-.76 1.354-1.948 2.292v5.541h-1.916q-.396.459-.917.709-.521.25-1.125.25Zm-1.688-3.23h3.355v-.729H8.312Zm0-1.687h3.355v-.771H8.312Zm.896-3.042h1.584V9.375l1.916-1.917-1.125-1.125L10 7.917 8.417 6.333 7.292 7.458l1.916 1.917Z"/></svg>

<svg xmlns="http://www.w3.org/2000/svg" height="20" width="20"><path d="M10 19.292Q9.396 19.292 8.875 19.042Q8.354 18.792 7.958 18.333H6.042V12.792Q4.854 11.854 4.094 10.479Q3.333 9.104 3.333 7.375Q3.333 4.604 5.281 2.656Q7.229 0.708 10 0.708Q12.771 0.708 14.719 2.656Q16.667 4.604 16.667 7.375Q16.667 9.146 15.906 10.5Q15.146 11.854 13.958 12.792V18.333H12.042Q11.646 18.792 11.125 19.042Q10.604 19.292 10 19.292ZM8.312 16.062H11.667V15.333H8.312ZM8.312 14.375H11.667V13.604H8.312ZM9.208 11.333H10.792V9.375L12.708 7.458L11.583 6.333L10 7.917L8.417 6.333L7.292 7.458L9.208 9.375Z"/></svg>
